X:459
T:Leith Hall
R:Strathspey
B:The Athole Collection
M:C
L:1/8
K:F
C>F FF/G/ A>FA>c|C>F FG/A/ B/A/G/F/ D2|C>F FF/G/ A>FA>c|
d<fc<f A>G ~F2:|
d>fc>f A>fc>f|d>fc>f d<f ~G2|d>fc>f A>fc>f|d<f c>A B/A/G/F/ D2|
d>fc>f A>fc>f|d>fc>f d>fg>a|b>ga>f g>ef>c|d<f ~c>A B/A/G/F/ D2||

